X:1
T:Jolly Young Sailor Boy
M:6/8
L:1/8
K:D
D/2-E/2| F2 EE-F G| A3 D2 D|E-D ED-C B,| A,3- A,2 D| A2 B A2- B| A3 D2 D|\
E-F-E D2 D| E3- E2 E/2E/2| A2 B A2 B| A2- D D2 D|E-F E D2 D| E3- E2 D|\
 E2 D EFG|A-B AG-F E| E2 B,D-C B,| A,3- A,2||
